X: 20341
T: John Brosnan's
R: reel
M: 4/4
K: Aminor
|:GAAG ABcd|e2 de cBAG|EG G2 EGDG|EG G2 eGdG|
EAAG ABcd|e2de cBAG|e2 de ceBc|1 EAAG A3G:|2 EAAG ABcd||
|:eA A2 eAcd|e2 ae gedg|eA A2 eAce|dG G2 dGBd|
eA A2 eAcd|e2 ae gedg|e2 de ceBc|1 EAAG ABcd:|2 EAAG A3 G||

